X: 1
T:Lark in the Morning, The
R:jig
H:See also #40
D:Sanctuary Sessions
D:Noel Hill: The Irish Concertina
Z:hn-jig-330
M:6/8
K:D
AFD ~D3|DEF AB=c|BGG dGG|BAG BdB|
AFD ~D3|DEF A2B|def gfe|fd^c dcB:|
|:Add fdd|add fdd|Add fed|edB BAF|
Add fdd|add efg|~f3 gfe|fd^c dcB:|
